X:610
M:C|
L:1/8
K:B_
g|fBdB FBDg|gBdB Accg|fBdB FBDF|EGFE DB,B,g|fBdB FBDg|
fBdB Ac~ce|dBAB GeFd|EGFE DB,~B,||

